frontend/landing/src/assets/social/telegram.svg

<svg width="20" height="20" viewBox="0 0 20 20" fill="none" xmlns="http://www.w3.org/2000/svg">
  <path fill-rule="evenodd" clip-rule="evenodd" d="M19.1777 2.60144L16.059 17.6026C15.9856 17.9568 15.5702 18.1173 15.2772 17.9043L11.0199 14.8135C10.7614 14.6258 10.409 14.6358 10.1616 14.8375L7.80117 16.7616C7.52727 16.9856 7.11446 16.8608 7.00956 16.5234L5.37058 11.2524L1.13612 9.67201C0.705988 9.51088 0.702313 8.90362 1.13122 8.7384L18.5095 2.03433C18.8779 1.89186 19.258 2.2146 19.1777 2.60144ZM15.0214 5.31438L6.74568 10.4113C6.42849 10.607 6.2792 10.9901 6.38153 11.3487L7.27628 14.4927C7.33993 14.7154 7.66313 14.6927 7.69411 14.4625L7.92665 12.7384C7.97058 12.4138 8.12535 12.1146 8.36548 11.8912L15.1952 5.5426C15.3231 5.42417 15.17 5.22308 15.0214 5.31438Z" fill="#ADB0B8"/>
</svg>

<svg xmlns="http://www.w3.org/2000/svg" viewBox="0 0 20 20"><path fill="currentColor" fill-rule="evenodd" d="M19.1777 2.6014 16.059 17.6026c-.0734.3542-.4888.5147-.7818.3017l-4.2573-3.0908a.7039.7039 0 0 0-.8583.024l-2.3604 1.9241c-.274.224-.6867.0992-.7916-.2382l-1.639-5.271L1.136 9.672c-.4301-.1611-.4338-.7684-.0049-.9336l17.3783-6.704c.3684-.1425.7485.1802.6682.567Zm-4.1563 2.713-8.2757 5.0969a.8334.8334 0 0 0-.3642.9374l.8948 3.144c.0636.2227.3868.2.4178-.0302l.2326-1.7241a1.416 1.416 0 0 1 .4388-.8472l6.8297-6.3486c.1279-.1184-.0252-.3195-.1738-.2282Z" clip-rule="evenodd"/></svg>
